X: 42940
T: William McGonigal's
R: barndance
M: 4/4
K: Dmajor
d>e|fz f>f a2a>f|d>ed>c B2c>d|e2e2 e>fe>d|c<eB>c A3g|
(3fgf d>f a>ba>f|d>ed>c B2c>d|(3efe (3ded (3cdc (3BcB|(3ABA ^G>B A2||
|:(3ABc|dzD2 F<AA2|B<eB>d c>AB>c|dzD2 F<AA2|(3Bcd c>e d2:|

